X: 3
P: Liverpool Hornpipe
B: Hardie p.34 (AB1 variant)
B: Kennedy v.1 p.6 #11 (AB1,B2)
B: Skye p.172 (AB2)
Z: 1998 by John Chambers <jc:trillian.mit.edu>
M: 4/4
L: 1/8
K: C
   GF | "C"ECEG    cege | "F"fedc "G"cBAG | "F"F2AF  "C"E2GE | "Dm"DCDE "G7"FAGF |
   y6 | "C"ECEG    cege | "F"fedB "G"cBAG | "C"cege "G7"afdB |  "C"c2e2     c2  :|
(3GAB | "C"c2ec "G"B2dB | "F"AGAB "C"cBAG | "F"F2AF  "C"E2GE | "Dm"DCDE "G7"FAGF |
   y6 | "C"ECEG    cege | "F"fedB "G"cBAG | "C"cege "G7"afdB |  "C"c2e2     c2  |]
(3GAB | "C"cece "G"BdBd | "F"AGAB "C"cBAG | "F"FAFA  "C"EGEG | "Dm"DCDE "G7"FAGF |
   y6 | "C"ECEG    cege | "F"fedB "G"cBAG | "C"cege "G7"afdB |  "C"c2e2     c2  |]
